X: 4029
M: C|
L: 1/8
K: A
|:\
e2cA e2cA | defg bagf |\
[1 e2cA e2cA | BAGA Bcd^d :|\
[2 eagf edcB | A2c2 A2z2 H:|
|:\
fedc dcBA |[1 GAFG EFGA :|[2 GAFG EBc"_D.C."d |]


